X:1
T:Roll On John
M:2/4
L:1/4
K:C
 G/2G/2 E| C2-| C(3C3.99999962500005/11.9999985000002C3.99999962500005/11.9999985000002D3.99999962500005/11.9999985000002C3.99999962500005/11.9999985000002D3.99999962500005/11.9999985000002E3.99999962500005/11.9999985000002|\
 D/2C/2 A,-|
M:3/4
 A,3/2 z/2G,/2-A,/2|
M:2/4
 C- C| A,/2- G,3/2-| G, G,/2A,/2| C D| C2-| C z|

